X:72
T:Tripping to the Well
T:John McKenna's
R:polka
H:Also played in A, see #107
D:John McKenna & Eddie Meehan 1937 (Decca)
D:Begley & Cooney: Meitheal
Z:id:hn-polka-72
M:2/4
L:1/8
K:G
G>A BG|EG ED|G>A Bd|BA AB|G>A BG|EG ED|BG D/E/F/G/|1 AG GD:|2 AG G>B||
|:dB G>A|BG ED|dB G>A|BA AB|dB G>A|BG ED|BG D/E/F/G/|1 AG G>B:|2 AG GD||
<end>
<start>
